X:1
T:Angeline The Baker
M:4/4
L:1/8
K:C
|:d/B/|AB d>A|B d2 d/B/|AB d/B/A|! B3 d/B/|AB d>e|fe d>e|fe dB|A>B A:|! |:f/g/|af ed/e/|fe df/g/|af ed|B>B Bf/g/|! af ed/e/|fe dd/e/|fe dB|A>B A:|